X:460
T:La Creu
Z:Jack Campin, http://www.campin.me.uk/
F:Jack Campin's Nine-Note Tunebook
% last edit 03-02-2013
S:CD WKPD-95 no 38, Ball de Bastons Catalunya, track 13
S:Ball de Bastons de Llorenc del Penedes
G:for the gralla (small shawm), rattle accompaniment
M:2/4
L:1/8
K:DMix
P:intro
Q:1/4=125
A/A/|(3ABA (3GFE|  D2  zA/A/|(3ABA (3GFE|  D2  z2||
P:dance
Q:1/4=155
    |: A>F   A>F|(3GFE F>D  |  A>F   A>F|(3GFE D2 |
       D>F   A>A|(3AGA B2   |  G>A (3BAB|(3dcB A2 |
       D>F   A>A|(3AGA B2   |  dz  (3ABA|(3GFE D2:|

